X: 911
T: The Antrim Lasses.
B:O'Neill's 911
N:"collected by J. O'Neill."
Z:Transcribed by Tom Keays (htkeays@mailbox.syr.edu)
Z:abc 1.6
M:6/8
R:Jig
L:1/8
K:A
E | A2E Acd | ede ABA | G2D G>Bc | dcd G2B |
A2E ABd | e2f =gfg | edc Bcd | ecA A2 :|
|| a | aga A2a | aga A2=g | gfg G2=g | gfg G2B  |
c2c d2d | e2f =gfg | edc Bcd | ecA A2 :|


